icons/user-plus.svg

<?xml version="1.0" standalone="no"?><!-- Generator: Gravit.io --><svg xmlns="http://www.w3.org/2000/svg" xmlns:xlink="http://www.w3.org/1999/xlink" width="96" height="96"><path d=" M 62 79.40000557754635 Q 60.7 76.00000557754635 59.8 74.70000557754635 C 58.900000000000006 73.40000557754635 57.8 72.20000557754635 56.599999999999994 71.20000557754635 Q 54.8 69.90000557754635 49.6 67.70000557754635 C 49.6 67.70000557754635 49.5 67.70000557754635 49.5 67.70000557754635 C 44.9 65.80000557754634 40 64.80000557754634 35 64.70000557754635 C 30 64.80000557754634 25.1 65.80000557754634 20.5 67.70000557754635 C 20.5 67.70000557754635 20.4 67.70000557754635 20.4 67.70000557754635 Q 15.2 69.90000557754635 13.399999999999999 71.20000557754635 C 12.2 72.20000557754635 11.100000000000001 73.40000557754635 10.2 74.70000557754635 Q 9.3 76.00000557754635 8 79.40000557754635 C 13 80.90000557754635 18 82.10000557754634 23.1 83.00000557754635 C 27.1 83.70000557754635 31 84.00000557754635 35 84.00000557754635 C 39 84.00000557754635 42.9 83.70000557754635 46.9 83.00000557754635 C 52 82.10000557754634 57 80.90000557754635 62 79.40000557754635 Z  M 52.5 60.300005577546344 C 46.9 58.00000557754635 41 56.800005577546344 35 56.70000557754635 C 29 56.800005577546344 23.1 58.00000557754635 17.5 60.300005577546344 Q 11 63.00000557754635 8.600000000000001 64.80000557754634 C 6.600000000000001 66.40000557754635 4.899999999999999 68.20000557754635 3.6000000000000014 70.20000557754635 C 2.1999999999999993 72.30000557754634 1.0999999999999996 74.60000557754634 0.3000000000000007 77.00000557754635 C 0.3000000000000007 77.20000557754635 0 79.10000557754634 0 79.30000557754634 C 0 82.80000557754634 2.3000000000000007 86.00000557754635 5.600000000000001 87.00000557754635 C 10.899999999999999 88.70000557754635 16.3 89.90000557754635 21.799999999999997 90.90000557754635 C 26.1 91.60000557754634 30.6 92.00000557754635 35 92.00000557754635 C 39.4 92.00000557754635 43.9 91.60000557754634 48.2 90.90000557754635 C 53.7 89.90000557754635 59.099999999999994 88.70000557754635 64.4 87.00000557754635 C 67.7 86.00000557754635 70 82.80000557754634 70 79.30000557754634 C 70 79.10000557754634 69.7 77.20000557754635 69.7 77.00000557754635 C 68.9 74.60000557754634 67.8 72.30000557754634 66.4 70.20000557754635 C 65.1 68.20000557754635 63.400000000000006 66.40000557754635 61.400000000000006 64.80000557754634 Q 59 63.00000557754635 52.5 60.300005577546344 Z  M 15 28.100005577546348 C 14.536289852045847 20.55562608209153 14.975747242309005 14.764050704009115 20.4 9.500005577546347 C 24.769422259060654 5.25963607860411 28.91127551258289 4.004304631115236 35 4.000005577546347 C 40.988340161756 3.995777402138292 45.04238785366553 5.192518249204916 49.4 9.300005577546347 C 54.97078961229775 14.551034575300747 55.46117186619128 20.458387754756743 55 28.100005577546348 C 54.583077245393056 35.00841562138334 52.099999999999994 39.800005577546344 48.5 44.60000557754635 C 45.1 49.10000557754635 40.7 51.900005577546345 35 52.00000557754635 C 29.299999999999997 51.900005577546345 24.9 49.10000557754635 21.5 44.60000557754635 C 17.9 39.800005577546344 15.424592007960548 35.00794850897484 15 28.100005577546348 Z  M 23 27.900005577546345 C 22.572067449481857 22.357481017295886 22.42256288542167 17.494737987586497 26.9 14.200005577546346 C 29.538329115126466 12.258585023440283 31.724482821846465 11.97031545712585 35 12.000005577546347 C 38.38278953223834 12.03066804185556 40.647690680830394 12.400134038240928 43.3 14.500005577546347 C 47.55351851100358 17.867577526492937 47.41515065964791 22.49069781364753 47 27.900005577546345 C 46.618431446201555 32.87174702262099 44.7 36.300005577546344 42.1 39.70000557754635 C 40.2 42.300005577546344 38.2 43.900005577546345 35 44.00000557754635 C 31.799999999999997 43.900005577546345 29.799999999999997 42.300005577546344 27.9 39.70000557754635 C 25.299999999999997 36.300005577546344 23.383849424342117 32.871571445293945 23 27.900005577546345 Z  M 84 12 L 84 8 C 84 6.9 83.6 5.9 82.8 5.2 C 82.1 4.4 81.1 4 80 4 C 78.9 4 77.9 4.4 77.2 5.2 C 76.4 5.9 76 6.9 76 8 L 76 12 L 72 12 C 70.9 12 69.9 12.4 69.2 13.2 C 68.4 13.9 68 14.9 68 16 C 68 17.1 68.4 18.1 69.2 18.8 C 69.9 19.6 70.9 20 72 20 L 76 20 L 76 24 C 76 25.1 76.4 26.1 77.2 26.8 C 77.9 27.6 78.9 28 80 28 C 81.1 28 82.1 27.6 82.8 26.8 C 83.6 26.1 84 25.1 84 24 L 84 20 L 88 20 C 89.1 20 90.1 19.6 90.8 18.8 C 91.6 18.1 92 17.1 92 16 C 92 14.9 91.6 13.9 90.8 13.2 C 90.1 12.4 89.1 12 88 12 L 84 12 Z " fill-rule="evenodd" fill="#454545" stroke="none"/><mask id="_mask_hCgeVSD6EJcA54RFTqkT2ebFolFTSCsa"><path d=" M 62 79.40000557754635 Q 60.7 76.00000557754635 59.8 74.70000557754635 C 58.900000000000006 73.40000557754635 57.8 72.20000557754635 56.599999999999994 71.20000557754635 Q 54.8 69.90000557754635 49.6 67.70000557754635 C 49.6 67.70000557754635 49.5 67.70000557754635 49.5 67.70000557754635 C 44.9 65.80000557754634 40 64.80000557754634 35 64.70000557754635 C 30 64.80000557754634 25.1 65.80000557754634 20.5 67.70000557754635 C 20.5 67.70000557754635 20.4 67.70000557754635 20.4 67.70000557754635 Q 15.2 69.90000557754635 13.399999999999999 71.20000557754635 C 12.2 72.20000557754635 11.100000000000001 73.40000557754635 10.2 74.70000557754635 Q 9.3 76.00000557754635 8 79.40000557754635 C 13 80.90000557754635 18 82.10000557754634 23.1 83.00000557754635 C 27.1 83.70000557754635 31 84.00000557754635 35 84.00000557754635 C 39 84.00000557754635 42.9 83.70000557754635 46.9 83.00000557754635 C 52 82.10000557754634 57 80.90000557754635 62 79.40000557754635 Z  M 52.5 60.300005577546344 C 46.9 58.00000557754635 41 56.800005577546344 35 56.70000557754635 C 29 56.800005577546344 23.1 58.00000557754635 17.5 60.300005577546344 Q 11 63.00000557754635 8.600000000000001 64.80000557754634 C 6.600000000000001 66.40000557754635 4.899999999999999 68.20000557754635 3.6000000000000014 70.20000557754635 C 2.1999999999999993 72.30000557754634 1.0999999999999996 74.60000557754634 0.3000000000000007 77.00000557754635 C 0.3000000000000007 77.20000557754635 0 79.10000557754634 0 79.30000557754634 C 0 82.80000557754634 2.3000000000000007 86.00000557754635 5.600000000000001 87.00000557754635 C 10.899999999999999 88.70000557754635 16.3 89.90000557754635 21.799999999999997 90.90000557754635 C 26.1 91.60000557754634 30.6 92.00000557754635 35 92.00000557754635 C 39.4 92.00000557754635 43.9 91.60000557754634 48.2 90.90000557754635 C 53.7 89.90000557754635 59.099999999999994 88.70000557754635 64.4 87.00000557754635 C 67.7 86.00000557754635 70 82.80000557754634 70 79.30000557754634 C 70 79.10000557754634 69.7 77.20000557754635 69.7 77.00000557754635 C 68.9 74.60000557754634 67.8 72.30000557754634 66.4 70.20000557754635 C 65.1 68.20000557754635 63.400000000000006 66.40000557754635 61.400000000000006 64.80000557754634 Q 59 63.00000557754635 52.5 60.300005577546344 Z  M 15 28.100005577546348 C 14.536289852045847 20.55562608209153 14.975747242309005 14.764050704009115 20.4 9.500005577546347 C 24.769422259060654 5.25963607860411 28.91127551258289 4.004304631115236 35 4.000005577546347 C 40.988340161756 3.995777402138292 45.04238785366553 5.192518249204916 49.4 9.300005577546347 C 54.97078961229775 14.551034575300747 55.46117186619128 20.458387754756743 55 28.100005577546348 C 54.583077245393056 35.00841562138334 52.099999999999994 39.800005577546344 48.5 44.60000557754635 C 45.1 49.10000557754635 40.7 51.900005577546345 35 52.00000557754635 C 29.299999999999997 51.900005577546345 24.9 49.10000557754635 21.5 44.60000557754635 C 17.9 39.800005577546344 15.424592007960548 35.00794850897484 15 28.100005577546348 Z  M 23 27.900005577546345 C 22.572067449481857 22.357481017295886 22.42256288542167 17.494737987586497 26.9 14.200005577546346 C 29.538329115126466 12.258585023440283 31.724482821846465 11.97031545712585 35 12.000005577546347 C 38.38278953223834 12.03066804185556 40.647690680830394 12.400134038240928 43.3 14.500005577546347 C 47.55351851100358 17.867577526492937 47.41515065964791 22.49069781364753 47 27.900005577546345 C 46.618431446201555 32.87174702262099 44.7 36.300005577546344 42.1 39.70000557754635 C 40.2 42.300005577546344 38.2 43.900005577546345 35 44.00000557754635 C 31.799999999999997 43.900005577546345 29.799999999999997 42.300005577546344 27.9 39.70000557754635 C 25.299999999999997 36.300005577546344 23.383849424342117 32.871571445293945 23 27.900005577546345 Z  M 84 12 L 84 8 C 84 6.9 83.6 5.9 82.8 5.2 C 82.1 4.4 81.1 4 80 4 C 78.9 4 77.9 4.4 77.2 5.2 C 76.4 5.9 76 6.9 76 8 L 76 12 L 72 12 C 70.9 12 69.9 12.4 69.2 13.2 C 68.4 13.9 68 14.9 68 16 C 68 17.1 68.4 18.1 69.2 18.8 C 69.9 19.6 70.9 20 72 20 L 76 20 L 76 24 C 76 25.1 76.4 26.1 77.2 26.8 C 77.9 27.6 78.9 28 80 28 C 81.1 28 82.1 27.6 82.8 26.8 C 83.6 26.1 84 25.1 84 24 L 84 20 L 88 20 C 89.1 20 90.1 19.6 90.8 18.8 C 91.6 18.1 92 17.1 92 16 C 92 14.9 91.6 13.9 90.8 13.2 C 90.1 12.4 89.1 12 88 12 L 84 12 Z " fill-rule="evenodd" fill="white" stroke="none"/></mask><path d=" M 62 79.40000557754635 Q 60.7 76.00000557754635 59.8 74.70000557754635 C 58.900000000000006 73.40000557754635 57.8 72.20000557754635 56.599999999999994 71.20000557754635 Q 54.8 69.90000557754635 49.6 67.70000557754635 C 49.6 67.70000557754635 49.5 67.70000557754635 49.5 67.70000557754635 C 44.9 65.80000557754634 40 64.80000557754634 35 64.70000557754635 C 30 64.80000557754634 25.1 65.80000557754634 20.5 67.70000557754635 C 20.5 67.70000557754635 20.4 67.70000557754635 20.4 67.70000557754635 Q 15.2 69.90000557754635 13.399999999999999 71.20000557754635 C 12.2 72.20000557754635 11.100000000000001 73.40000557754635 10.2 74.70000557754635 Q 9.3 76.00000557754635 8 79.40000557754635 C 13 80.90000557754635 18 82.10000557754634 23.1 83.00000557754635 C 27.1 83.70000557754635 31 84.00000557754635 35 84.00000557754635 C 39 84.00000557754635 42.9 83.70000557754635 46.9 83.00000557754635 C 52 82.10000557754634 57 80.90000557754635 62 79.40000557754635 Z  M 52.5 60.300005577546344 C 46.9 58.00000557754635 41 56.800005577546344 35 56.70000557754635 C 29 56.800005577546344 23.1 58.00000557754635 17.5 60.300005577546344 Q 11 63.00000557754635 8.600000000000001 64.80000557754634 C 6.600000000000001 66.40000557754635 4.899999999999999 68.20000557754635 3.6000000000000014 70.20000557754635 C 2.1999999999999993 72.30000557754634 1.0999999999999996 74.60000557754634 0.3000000000000007 77.00000557754635 C 0.3000000000000007 77.20000557754635 0 79.10000557754634 0 79.30000557754634 C 0 82.80000557754634 2.3000000000000007 86.00000557754635 5.600000000000001 87.00000557754635 C 10.899999999999999 88.70000557754635 16.3 89.90000557754635 21.799999999999997 90.90000557754635 C 26.1 91.60000557754634 30.6 92.00000557754635 35 92.00000557754635 C 39.4 92.00000557754635 43.9 91.60000557754634 48.2 90.90000557754635 C 53.7 89.90000557754635 59.099999999999994 88.70000557754635 64.4 87.00000557754635 C 67.7 86.00000557754635 70 82.80000557754634 70 79.30000557754634 C 70 79.10000557754634 69.7 77.20000557754635 69.7 77.00000557754635 C 68.9 74.60000557754634 67.8 72.30000557754634 66.4 70.20000557754635 C 65.1 68.20000557754635 63.400000000000006 66.40000557754635 61.400000000000006 64.80000557754634 Q 59 63.00000557754635 52.5 60.300005577546344 Z  M 15 28.100005577546348 C 14.536289852045847 20.55562608209153 14.975747242309005 14.764050704009115 20.4 9.500005577546347 C 24.769422259060654 5.25963607860411 28.91127551258289 4.004304631115236 35 4.000005577546347 C 40.988340161756 3.995777402138292 45.04238785366553 5.192518249204916 49.4 9.300005577546347 C 54.97078961229775 14.551034575300747 55.46117186619128 20.458387754756743 55 28.100005577546348 C 54.583077245393056 35.00841562138334 52.099999999999994 39.800005577546344 48.5 44.60000557754635 C 45.1 49.10000557754635 40.7 51.900005577546345 35 52.00000557754635 C 29.299999999999997 51.900005577546345 24.9 49.10000557754635 21.5 44.60000557754635 C 17.9 39.800005577546344 15.424592007960548 35.00794850897484 15 28.100005577546348 Z  M 23 27.900005577546345 C 22.572067449481857 22.357481017295886 22.42256288542167 17.494737987586497 26.9 14.200005577546346 C 29.538329115126466 12.258585023440283 31.724482821846465 11.97031545712585 35 12.000005577546347 C 38.38278953223834 12.03066804185556 40.647690680830394 12.400134038240928 43.3 14.500005577546347 C 47.55351851100358 17.867577526492937 47.41515065964791 22.49069781364753 47 27.900005577546345 C 46.618431446201555 32.87174702262099 44.7 36.300005577546344 42.1 39.70000557754635 C 40.2 42.300005577546344 38.2 43.900005577546345 35 44.00000557754635 C 31.799999999999997 43.900005577546345 29.799999999999997 42.300005577546344 27.9 39.70000557754635 C 25.299999999999997 36.300005577546344 23.383849424342117 32.871571445293945 23 27.900005577546345 Z  M 84 12 L 84 8 C 84 6.9 83.6 5.9 82.8 5.2 C 82.1 4.4 81.1 4 80 4 C 78.9 4 77.9 4.4 77.2 5.2 C 76.4 5.9 76 6.9 76 8 L 76 12 L 72 12 C 70.9 12 69.9 12.4 69.2 13.2 C 68.4 13.9 68 14.9 68 16 C 68 17.1 68.4 18.1 69.2 18.8 C 69.9 19.6 70.9 20 72 20 L 76 20 L 76 24 C 76 25.1 76.4 26.1 77.2 26.8 C 77.9 27.6 78.9 28 80 28 C 81.1 28 82.1 27.6 82.8 26.8 C 83.6 26.1 84 25.1 84 24 L 84 20 L 88 20 C 89.1 20 90.1 19.6 90.8 18.8 C 91.6 18.1 92 17.1 92 16 C 92 14.9 91.6 13.9 90.8 13.2 C 90.1 12.4 89.1 12 88 12 L 84 12 Z " fill-rule="evenodd" fill="none" stroke="none" stroke-width="16" mask="url(#_mask_hCgeVSD6EJcA54RFTqkT2ebFolFTSCsa)"/></svg>

<svg xmlns="http://www.w3.org/2000/svg" width="96" height="96"><path d="M62 79.4q-1.3-3.4-2.2-4.7c-.9-1.3-2-2.5-3.2-3.5q-1.8-1.3-7-3.5h-.1c-4.6-1.9-9.5-2.9-14.5-3-5 .1-9.9 1.1-14.5 3h-.1q-5.2 2.2-7 3.5c-1.2 1-2.3 2.2-3.2 3.5Q9.3 76 8 79.4c5 1.5 10 2.7 15.1 3.6 4 .7 7.9 1 11.9 1s7.9-.3 11.9-1C52 82.1 57 80.9 62 79.4zm-9.5-19.1C46.9 58 41 56.8 35 56.7c-6 .1-11.9 1.3-17.5 3.6Q11 63 8.6 64.8c-2 1.6-3.7 3.4-5 5.4C2.2 72.3 1.1 74.6.3 77c0 .2-.3 2.1-.3 2.3C0 82.8 2.3 86 5.6 87c5.3 1.7 10.7 2.9 16.2 3.9 4.3.7 8.8 1.1 13.2 1.1 4.4 0 8.9-.4 13.2-1.1 5.5-1 10.9-2.2 16.2-3.9 3.3-1 5.6-4.2 5.6-7.7 0-.2-.3-2.1-.3-2.3-.8-2.4-1.9-4.7-3.3-6.8-1.3-2-3-3.8-5-5.4Q59 63 52.5 60.3zM15 28.1c-.464-7.544-.024-13.336 5.4-18.6C24.77 5.26 28.911 4.004 35 4c5.988-.004 10.042 1.193 14.4 5.3 5.57 5.251 6.061 11.158 5.6 18.8-.417 6.908-2.9 11.7-6.5 16.5-3.4 4.5-7.8 7.3-13.5 7.4-5.7-.1-10.1-2.9-13.5-7.4-3.6-4.8-6.075-9.592-6.5-16.5zm8-.2c-.428-5.543-.577-10.405 3.9-13.7 2.638-1.941 4.824-2.23 8.1-2.2 3.383.03 5.648.4 8.3 2.5 4.254 3.368 4.115 7.99 3.7 13.4-.382 4.972-2.3 8.4-4.9 11.8-1.9 2.6-3.9 4.2-7.1 4.3-3.2-.1-5.2-1.7-7.1-4.3-2.6-3.4-4.516-6.828-4.9-11.8zM84 12V8c0-1.1-.4-2.1-1.2-2.8C82.1 4.4 81.1 4 80 4c-1.1 0-2.1.4-2.8 1.2-.8.7-1.2 1.7-1.2 2.8v4h-4c-1.1 0-2.1.4-2.8 1.2-.8.7-1.2 1.7-1.2 2.8 0 1.1.4 2.1 1.2 2.8.7.8 1.7 1.2 2.8 1.2h4v4c0 1.1.4 2.1 1.2 2.8.7.8 1.7 1.2 2.8 1.2 1.1 0 2.1-.4 2.8-1.2.8-.7 1.2-1.7 1.2-2.8v-4h4c1.1 0 2.1-.4 2.8-1.2.8-.7 1.2-1.7 1.2-2.8 0-1.1-.4-2.1-1.2-2.8-.7-.8-1.7-1.2-2.8-1.2h-4z" fill-rule="evenodd" fill="#454545"/></svg>
